assets/icons/librescoot-horn.svg

<svg xmlns="http://www.w3.org/2000/svg" width="1440" height="1440" fill="none" viewBox="0 0 1440 1440"><path fill="#fff" fill-rule="evenodd" d="M173 400v639.5l50-10c0-57.836 12.97-187.008 218.269-230.155-9.45 18.851-14.769 40.132-14.769 62.655v12c0 77.32 62.68 140 140 140h442c77.32 0 140-62.68 140-140v-12c0-37.875-31.5-80-39.47-97.44l43.47-2.56c36.57 5.105 51.35 17.126 76.5 40.5h38V641h-38c-24.43 15.939-33.3 26.889-76.5 35S598 656 598 656c-340 0-375-169-375-239zm393.5 400h442c34.24 0 62 27.758 62 62v12c0 34.242-27.76 62-62 62h-442c-34.242 0-62-27.758-62-62v-12c0-34.242 27.758-62 62-62" clip-rule="evenodd"/></svg>

<svg width="1440" height="1440" viewBox="0 0 1440 1440" fill="none" xmlns="http://www.w3.org/2000/svg">
<path fill-rule="evenodd" clip-rule="evenodd" d="M173 400V1039.5L223 1029.5C223 971.664 235.97 842.492 441.269 799.345C431.819 818.196 426.5 839.477 426.5 862V874C426.5 951.32 489.18 1014 566.5 1014H1008.5C1085.82 1014 1148.5 951.32 1148.5 874V862C1148.5 824.125 1117 782 1109.03 764.56L1152.5 762C1189.07 767.105 1203.85 779.126 1229 802.5H1267V641H1229C1204.57 656.939 1195.7 667.889 1152.5 676C1109.3 684.111 598 656 598 656C258 656 223 487 223 417L173 400ZM566.5 800H1008.5C1042.74 800 1070.5 827.758 1070.5 862V874C1070.5 908.242 1042.74 936 1008.5 936H566.5C532.258 936 504.5 908.242 504.5 874V862C504.5 827.758 532.258 800 566.5 800Z" fill="white"/>
</svg>
